X: 16841
T: Harvest Home, The
R: hornpipe
M: 4/4
K: Dmajor
AF|:DAFA DAFA|defe dcBA|eAfA gAfA|edcB AGFE|
DAFA DAFA|defe dcBA|eAfA gece|1 d2 f2 d2 AF:|2 d2 f2 d2 cd||
|:eA A2 fA A2|gA A2 fA A2|eAfA gAfA|(3efe (3dcB (3ABA (3GFE|
DAFA DAFA|defe dcBA|eAfA gece|1 d2 f2 d2 cd:|2 d2 f2 d4||

